X: 1
T: John Kelly's
M: 12/8
L: 1/8
R: slide
K: Dmaj
|:e|f2A ABA B2A ded|c2B BAB g3 f2e|
f2A ABA B2A ded|c2B BAB d3 d2:|
|:f|g2g gfe f2f fed|Bee efe d2B BAB
|g2g gfe f2f fed|Bee efa b3 a2:|
